public/images/divisions/ict/sectors/icon_4.svg

<svg width="32" height="50" viewBox="0 0 32 50" fill="none" xmlns="http://www.w3.org/2000/svg">
<path d="M0.732455 28.2171C1.13696 28.2171 1.46491 27.8892 1.46491 27.4846V3.09975C1.46491 2.19834 2.19834 1.46491 3.09975 1.46491H27.9602C28.8616 1.46491 29.5951 2.19834 29.5951 3.09975V8.49452C29.5951 8.89913 29.923 9.22697 30.3275 9.22697C30.732 9.22697 31.06 8.89913 31.06 8.49452V3.09975C31.06 1.39049 29.6694 0 27.9602 0H3.09975C1.39059 0 0 1.39049 0 3.09975V27.4846C0 27.8891 0.327944 28.2171 0.732455 28.2171Z" fill="url(#paint0_linear_1_10035)"/>
<path d="M31.06 11.9104C31.06 11.5058 30.732 11.178 30.3275 11.178C29.923 11.178 29.5951 11.5058 29.5951 11.9104V42.2214H2V30.9005C2 30.4959 1.40451 30.0002 1 30.0002C0.59549 30.0002 0 30.4959 0 30.9005V46.9003C0 48.6095 1.39059 50 3.09975 50H22.4307C22.8352 50 23.5 49.4049 23.5 49.0002C23.5 48.5956 22.9045 48.0002 22.5 48.0002H3.09975C2.19834 48.0002 2 47.8017 2 46.9003V43.6863H29.5951V46.9003C29.5951 47.8017 28.8616 48.5351 27.9602 48.5351H25.8488C25.4443 48.5351 25.1164 48.863 25.1164 49.2676C25.1164 49.6722 25.4443 50 25.8488 50H27.9602C29.6694 50 31.06 48.6095 31.06 46.9003V11.9104Z" fill="url(#paint1_linear_1_10035)"/>
<path d="M15.5273 28.4583C13.9539 28.4583 12.6738 29.7383 12.6738 31.3118C12.6738 32.8853 13.9539 34.1653 15.5273 34.1653C17.1007 34.1653 18.3807 32.8853 18.3807 31.3118C18.3807 29.7383 17.1007 28.4583 15.5273 28.4583ZM15.5273 32.7003C14.7616 32.7003 14.1387 32.0774 14.1387 31.3117C14.1387 30.546 14.7616 29.9231 15.5273 29.9231C16.2929 29.9231 16.9158 30.546 16.9158 31.3117C16.9158 32.0774 16.2929 32.7003 15.5273 32.7003Z" fill="url(#paint2_linear_1_10035)"/>
<path d="M23.7518 29.2597C24.2052 28.7676 24.285 28.0475 23.9504 27.4679L23.0724 25.9473C22.7379 25.3677 22.0743 25.0773 21.4215 25.2233L19.7602 25.5961C19.7446 25.5995 19.7263 25.5945 19.7098 25.5825C19.3034 25.286 18.8641 25.0322 18.4039 24.8281C18.3856 24.8199 18.3724 24.8067 18.3677 24.7916L17.86 23.167C17.6604 22.5283 17.0767 22.0991 16.4076 22.0991H14.6516C13.9825 22.0991 13.3987 22.5283 13.1992 23.1669L12.6915 24.7916C12.6868 24.8067 12.6735 24.8199 12.655 24.8281C12.1951 25.0322 11.7558 25.286 11.3493 25.5825C11.3328 25.5945 11.3143 25.5998 11.299 25.5961L9.63753 25.2233C8.98438 25.0768 8.32117 25.3677 7.98668 25.9472L7.10871 27.4679C6.77412 28.0475 6.85391 28.7676 7.30725 29.2597L8.46092 30.5123C8.47166 30.5239 8.47654 30.5423 8.4744 30.5628C8.44764 30.8131 8.43396 31.0665 8.43396 31.3159C8.43396 31.5654 8.44754 31.8187 8.4744 32.0693C8.47654 32.0896 8.47166 32.108 8.46092 32.1196L7.30725 33.3722C6.85391 33.8643 6.77412 34.5843 7.10871 35.164L7.98668 36.6845C8.32117 37.2641 8.98467 37.5547 9.63763 37.4086L11.2988 37.0358C11.3147 37.0326 11.3327 37.0374 11.3494 37.0495C11.7563 37.3463 12.1956 37.6001 12.6549 37.8036C12.6733 37.8118 12.6867 37.8252 12.6914 37.8403L13.1991 39.4648C13.3986 40.1035 13.9824 40.5328 14.6515 40.5328H16.4075C17.0766 40.5328 17.6603 40.1035 17.8599 39.4649L18.3676 37.8403C18.3723 37.8252 18.3857 37.8118 18.4038 37.8037C18.8634 37.6001 19.3028 37.3463 19.7099 37.0493C19.7263 37.0373 19.7444 37.0323 19.76 37.0358L21.4215 37.4086C22.0745 37.5552 22.7378 37.2641 23.0723 36.6846L23.9503 35.164C24.2849 34.5843 24.2051 33.8643 23.7517 33.3722L22.5981 32.1196C22.5873 32.108 22.5824 32.0896 22.5846 32.0691C22.6114 31.8188 22.625 31.5654 22.625 31.3159C22.625 31.0665 22.6114 30.8132 22.5846 30.5626C22.5824 30.5423 22.5873 30.5239 22.5981 30.5123L23.7518 29.2597ZM21.1282 30.7185C21.1495 30.9174 21.1603 31.1184 21.1603 31.3158C21.1603 31.5133 21.1496 31.7143 21.1283 31.9129C21.0811 32.3528 21.2241 32.7898 21.5208 33.1118L22.6744 34.3644C22.6913 34.3828 22.6944 34.4096 22.6819 34.4313L21.8038 35.9521C21.7914 35.9736 21.7665 35.9843 21.7423 35.9789L20.0806 35.6062C19.6534 35.5104 19.2034 35.6051 18.8463 35.8658C18.5236 36.1013 18.175 36.3027 17.8103 36.4643C17.4064 36.6434 17.1 36.9856 16.9696 37.4029L16.4619 39.0277C16.4544 39.0514 16.4327 39.0675 16.4077 39.0675H14.6517C14.6268 39.0675 14.6049 39.0514 14.5975 39.0276L14.0898 37.4029C13.9594 36.9856 13.6529 36.6434 13.2488 36.4642C12.8844 36.3027 12.5358 36.1013 12.2132 35.866C11.9473 35.6718 11.6299 35.5696 11.3087 35.5696C11.1984 35.5696 11.0877 35.5818 10.9784 35.6062L9.31711 35.9789C9.29269 35.9848 9.26799 35.9737 9.25548 35.952L8.37752 34.4313C8.36502 34.4096 8.36794 34.3829 8.38494 34.3644L9.5387 33.1118C9.8353 32.7897 9.97827 32.3528 9.9312 31.9131C9.90991 31.7143 9.89907 31.5133 9.89907 31.3158C9.89907 31.1184 9.90981 30.9174 9.9311 30.7187C9.97827 30.2789 9.8353 29.8418 9.5386 29.5199L8.38494 28.2673C8.36804 28.2489 8.36502 28.222 8.37752 28.2004L9.25558 26.6796C9.26799 26.658 9.2926 26.647 9.31711 26.6527L10.9788 27.0255C11.4061 27.1213 11.8559 27.0266 12.2131 26.7659C12.5355 26.5307 12.8841 26.3293 13.2488 26.1675C13.6528 25.9885 13.9593 25.6463 14.0898 25.2288L14.5975 23.604C14.6049 23.5802 14.6267 23.5642 14.6517 23.5642H16.4077C16.4326 23.5642 16.4544 23.5802 16.4619 23.6041L16.9696 25.2288C17.1001 25.6463 17.4066 25.9885 17.8105 26.1675C18.1754 26.3293 18.524 26.5307 18.8463 26.7659C19.2036 27.0266 19.6534 27.1209 20.081 27.0255L21.7423 26.6527C21.7667 26.6476 21.7914 26.658 21.8039 26.6797L22.6819 28.2004C22.6944 28.222 22.6914 28.2488 22.6744 28.2673L21.5207 29.5199C21.2241 29.8419 21.081 30.2789 21.1282 30.7185Z" fill="url(#paint3_linear_1_10035)"/>
<path d="M18.8057 5.5249H15.0352C14.6307 5.5249 14.3027 5.85275 14.3027 6.25736C14.3027 6.66196 14.6307 6.98981 15.0352 6.98981H18.8057C19.2102 6.98981 19.5381 6.66196 19.5381 6.25736C19.5381 5.85275 19.2102 5.5249 18.8057 5.5249Z" fill="url(#paint4_linear_1_10035)"/>
<path d="M8.13187 6.98981H11.8807C12.2852 6.98981 12.6131 6.66196 12.6131 6.25736C12.6131 5.85275 12.2852 5.5249 11.8807 5.5249H8.13187C7.72736 5.5249 7.39941 5.85275 7.39941 6.25736C7.39941 6.66196 7.72736 6.98981 8.13187 6.98981Z" fill="url(#paint5_linear_1_10035)"/>
<path d="M8.13187 10.1483H16.6279C17.0324 10.1483 17.3603 9.82041 17.3603 9.4158C17.3603 9.0112 17.0324 8.68335 16.6279 8.68335H8.13187C7.72736 8.68335 7.39941 9.0112 7.39941 9.4158C7.39941 9.82041 7.72736 10.1483 8.13187 10.1483Z" fill="url(#paint6_linear_1_10035)"/>
<path d="M19.0518 9.4158C19.0518 9.82041 19.3797 10.1483 19.7842 10.1483H22.9293C23.3338 10.1483 23.6617 9.82041 23.6617 9.4158C23.6617 9.0112 23.3338 8.68335 22.9293 8.68335H19.7842C19.3797 8.68335 19.0518 9.0112 19.0518 9.4158Z" fill="url(#paint7_linear_1_10035)"/>
<path d="M8.13187 13.3013H11.6834C12.0879 13.3013 12.4158 12.9735 12.4158 12.5689C12.4158 12.1643 12.0879 11.8364 11.6834 11.8364H8.13187C7.72736 11.8364 7.39941 12.1643 7.39941 12.5689C7.39941 12.9735 7.72736 13.3013 8.13187 13.3013Z" fill="url(#paint8_linear_1_10035)"/>
<path d="M16.6275 11.8364H14.8399C14.4354 11.8364 14.1074 12.1643 14.1074 12.5689C14.1074 12.9735 14.4354 13.3013 14.8399 13.3013H16.6275C17.032 13.3013 17.3599 12.9735 17.3599 12.5689C17.3599 12.1643 17.032 11.8364 16.6275 11.8364Z" fill="url(#paint9_linear_1_10035)"/>
<path d="M22.9303 11.8364H19.7735C19.369 11.8364 19.041 12.1643 19.041 12.5689C19.041 12.9735 19.369 13.3013 19.7735 13.3013H22.9303C23.3349 13.3013 23.6628 12.9735 23.6628 12.5689C23.6628 12.1643 23.3349 11.8364 22.9303 11.8364Z" fill="url(#paint10_linear_1_10035)"/>
<path d="M8.13187 16.46H16.6279C17.0324 16.46 17.3603 16.1322 17.3603 15.7276C17.3603 15.323 17.0324 14.9951 16.6279 14.9951H8.13187C7.72736 14.9951 7.39941 15.323 7.39941 15.7276C7.39941 16.1322 7.72736 16.46 8.13187 16.46Z" fill="url(#paint11_linear_1_10035)"/>
<path d="M22.9184 14.9951H19.7842C19.3797 14.9951 19.0518 15.323 19.0518 15.7276C19.0518 16.1322 19.3797 16.46 19.7842 16.46H22.9184C23.3229 16.46 23.6509 16.1322 23.6509 15.7276C23.6509 15.323 23.3229 14.9951 22.9184 14.9951Z" fill="url(#paint12_linear_1_10035)"/>
<path d="M8.13187 19.6158H9.61162C10.0161 19.6158 10.3441 19.2879 10.3441 18.8833C10.3441 18.4787 10.0161 18.1509 9.61162 18.1509H8.13187C7.72736 18.1509 7.39941 18.4787 7.39941 18.8833C7.39941 19.2879 7.72736 19.6158 8.13187 19.6158Z" fill="url(#paint13_linear_1_10035)"/>
<path d="M22.92 18.1509H12.7696C12.3651 18.1509 12.0371 18.4787 12.0371 18.8833C12.0371 19.2879 12.3651 19.6158 12.7696 19.6158H22.92C23.3245 19.6158 23.6525 19.2879 23.6525 18.8833C23.6525 18.4787 23.3245 18.1509 22.92 18.1509Z" fill="url(#paint14_linear_1_10035)"/>
<path d="M22.92 6.98981C23.3245 6.98981 23.6525 6.66196 23.6525 6.25736C23.6525 5.85275 23.3245 5.5249 22.92 5.5249H21.9444C21.5399 5.5249 21.2119 5.85275 21.2119 6.25736C21.2119 6.66196 21.5399 6.98981 21.9444 6.98981H22.92Z" fill="url(#paint15_linear_1_10035)"/>
<path d="M5.30134 3.23629C4.93951 3.05513 4.49965 3.20202 4.31868 3.56385L3.72676 4.74769C3.62363 4.95395 3.62363 5.19664 3.72676 5.40289L4.31868 6.58674C4.44701 6.84339 4.70561 6.99174 4.97438 6.99174C5.08444 6.99174 5.19616 6.96673 5.30134 6.91419C5.66318 6.73323 5.80986 6.29336 5.6289 5.93153L5.20075 5.07524L5.6289 4.21896C5.80977 3.85722 5.66318 3.41726 5.30134 3.23629Z" fill="url(#paint16_linear_1_10035)"/>
<path d="M25.7576 19.54C25.8628 19.5926 25.9745 19.6175 26.0846 19.6175C26.3532 19.6175 26.6119 19.4691 26.7403 19.2125L27.3322 18.0287C27.4353 17.8224 27.4353 17.5797 27.3322 17.3735L26.7403 16.1896C26.5593 15.8279 26.1195 15.6813 25.7576 15.8621C25.3958 16.043 25.2491 16.4829 25.4301 16.8447L25.8582 17.701L25.4301 18.5573C25.2492 18.9192 25.3958 19.3591 25.7576 19.54Z" fill="url(#paint17_linear_1_10035)"/>
<defs>
<linearGradient id="paint0_linear_1_10035" x1="0" y1="14.4899" x2="31.06" y2="14.4899" gradientUnits="userSpaceOnUse">
<stop stop-color="#00469F"/>
<stop offset="1" stop-color="#1E79D6"/>
</linearGradient>
<linearGradient id="paint1_linear_1_10035" x1="0" y1="31.1136" x2="31.06" y2="31.1136" gradientUnits="userSpaceOnUse">
<stop stop-color="#00469F"/>
<stop offset="1" stop-color="#1E79D6"/>
</linearGradient>
<linearGradient id="paint2_linear_1_10035" x1="12.6738" y1="31.3889" x2="18.3807" y2="31.3889" gradientUnits="userSpaceOnUse">
<stop stop-color="#00469F"/>
<stop offset="1" stop-color="#1E79D6"/>
</linearGradient>
<linearGradient id="paint3_linear_1_10035" x1="6.90332" y1="31.565" x2="24.1558" y2="31.565" gradientUnits="userSpaceOnUse">
<stop stop-color="#00469F"/>
<stop offset="1" stop-color="#1E79D6"/>
</linearGradient>
<linearGradient id="paint4_linear_1_10035" x1="14.3027" y1="6.27715" x2="19.5381" y2="6.27715" gradientUnits="userSpaceOnUse">
<stop stop-color="#00469F"/>
<stop offset="1" stop-color="#1E79D6"/>
</linearGradient>
<linearGradient id="paint5_linear_1_10035" x1="7.39941" y1="6.27715" x2="12.6131" y2="6.27715" gradientUnits="userSpaceOnUse">
<stop stop-color="#00469F"/>
<stop offset="1" stop-color="#1E79D6"/>
</linearGradient>
<linearGradient id="paint6_linear_1_10035" x1="7.39941" y1="9.4356" x2="17.3603" y2="9.4356" gradientUnits="userSpaceOnUse">
<stop stop-color="#00469F"/>
<stop offset="1" stop-color="#1E79D6"/>
</linearGradient>
<linearGradient id="paint7_linear_1_10035" x1="19.0518" y1="9.4356" x2="23.6617" y2="9.4356" gradientUnits="userSpaceOnUse">
<stop stop-color="#00469F"/>
<stop offset="1" stop-color="#1E79D6"/>
</linearGradient>
<linearGradient id="paint8_linear_1_10035" x1="7.39941" y1="12.5887" x2="12.4158" y2="12.5887" gradientUnits="userSpaceOnUse">
<stop stop-color="#00469F"/>
<stop offset="1" stop-color="#1E79D6"/>
</linearGradient>
<linearGradient id="paint9_linear_1_10035" x1="14.1074" y1="12.5887" x2="17.3599" y2="12.5887" gradientUnits="userSpaceOnUse">
<stop stop-color="#00469F"/>
<stop offset="1" stop-color="#1E79D6"/>
</linearGradient>
<linearGradient id="paint10_linear_1_10035" x1="19.041" y1="12.5887" x2="23.6628" y2="12.5887" gradientUnits="userSpaceOnUse">
<stop stop-color="#00469F"/>
<stop offset="1" stop-color="#1E79D6"/>
</linearGradient>
<linearGradient id="paint11_linear_1_10035" x1="7.39941" y1="15.7474" x2="17.3603" y2="15.7474" gradientUnits="userSpaceOnUse">
<stop stop-color="#00469F"/>
<stop offset="1" stop-color="#1E79D6"/>
</linearGradient>
<linearGradient id="paint12_linear_1_10035" x1="19.0518" y1="15.7474" x2="23.6509" y2="15.7474" gradientUnits="userSpaceOnUse">
<stop stop-color="#00469F"/>
<stop offset="1" stop-color="#1E79D6"/>
</linearGradient>
<linearGradient id="paint13_linear_1_10035" x1="7.39941" y1="18.9031" x2="10.3441" y2="18.9031" gradientUnits="userSpaceOnUse">
<stop stop-color="#00469F"/>
<stop offset="1" stop-color="#1E79D6"/>
</linearGradient>
<linearGradient id="paint14_linear_1_10035" x1="12.0371" y1="18.9031" x2="23.6525" y2="18.9031" gradientUnits="userSpaceOnUse">
<stop stop-color="#00469F"/>
<stop offset="1" stop-color="#1E79D6"/>
</linearGradient>
<linearGradient id="paint15_linear_1_10035" x1="21.2119" y1="6.27715" x2="23.6525" y2="6.27715" gradientUnits="userSpaceOnUse">
<stop stop-color="#00469F"/>
<stop offset="1" stop-color="#1E79D6"/>
</linearGradient>
<linearGradient id="paint16_linear_1_10035" x1="3.64941" y1="5.12701" x2="5.70641" y2="5.12701" gradientUnits="userSpaceOnUse">
<stop stop-color="#00469F"/>
<stop offset="1" stop-color="#1E79D6"/>
</linearGradient>
<linearGradient id="paint17_linear_1_10035" x1="25.3525" y1="17.7529" x2="27.4095" y2="17.7529" gradientUnits="userSpaceOnUse">
<stop stop-color="#00469F"/>
<stop offset="1" stop-color="#1E79D6"/>
</linearGradient>
</defs>
</svg>

<svg xmlns="http://www.w3.org/2000/svg" xmlns:xlink="http://www.w3.org/1999/xlink" width="32" height="50" fill="none" xmlns:v="https://vecta.io/nano"><path d="M.732 28.217c.405 0 .732-.328.732-.732V3.1c0-.901.733-1.635 1.635-1.635h24.86c.901 0 1.635.733 1.635 1.635v5.395c0 .405.328.732.732.732s.732-.328.732-.732V3.1c0-1.709-1.391-3.1-3.1-3.1H3.1C1.391 0 0 1.39 0 3.1v24.385c0 .404.328.732.732.732z" fill="url(#A)"/><path d="M31.06 11.91c0-.405-.328-.732-.732-.732s-.732.328-.732.732v30.311H2V30.901c0-.405-.595-.9-1-.9s-1 .496-1 .9v16C0 48.61 1.391 50 3.1 50h19.331c.404 0 1.069-.595 1.069-1s-.596-1-1-1H3.1c-.901 0-1.1-.199-1.1-1.1v-3.214h27.595V46.9c0 .901-.733 1.635-1.635 1.635h-2.111c-.405 0-.732.328-.732.733s.328.732.732.732h2.111c1.709 0 3.1-1.391 3.1-3.1V11.91z" fill="url(#B)"/><path d="M15.527 28.458a2.86 2.86 0 0 0-2.854 2.854 2.86 2.86 0 0 0 2.854 2.854 2.86 2.86 0 0 0 2.853-2.854 2.86 2.86 0 0 0-2.853-2.854zm0 4.242a1.39 1.39 0 0 1-1.389-1.389 1.39 1.39 0 0 1 1.389-1.389 1.39 1.39 0 0 1 1.389 1.389 1.39 1.39 0 0 1-1.389 1.389z" fill="url(#C)"/><path d="M23.752 29.26c.453-.492.533-1.212.199-1.792l-.878-1.521c-.334-.58-.998-.87-1.651-.724l-1.661.373c-.016.003-.034-.002-.05-.014a7.11 7.11 0 0 0-1.306-.754c-.018-.008-.032-.021-.036-.037l-.508-1.625c-.2-.639-.783-1.068-1.452-1.068h-1.756c-.669 0-1.253.429-1.452 1.068l-.508 1.625c-.005.015-.018.028-.037.037-.46.204-.899.458-1.306.754-.016.012-.035.017-.05.014l-1.661-.373c-.653-.146-1.316.144-1.651.724l-.878 1.521c-.335.58-.255 1.3.199 1.792l1.154 1.253c.011.012.016.03.013.05-.027.25-.04.504-.04.753s.014.503.04.753c.002.02-.003.039-.013.05l-1.154 1.253c-.453.492-.533 1.212-.199 1.792l.878 1.52c.334.58.998.87 1.651.724l1.661-.373c.016-.003.034.002.051.014a7.1 7.1 0 0 0 1.306.754c.018.008.032.022.037.037l.508 1.624c.2.639.783 1.068 1.452 1.068h1.756c.669 0 1.253-.429 1.452-1.068l.508-1.625c.005-.015.018-.029.036-.037a7.1 7.1 0 0 0 1.306-.754c.016-.012.034-.017.05-.014l1.662.373c.653.147 1.316-.145 1.651-.724l.878-1.521c.335-.58.255-1.3-.199-1.792l-1.154-1.253c-.011-.012-.016-.03-.014-.05.027-.25.04-.504.04-.753a7.11 7.11 0 0 0-.04-.753c-.002-.02.003-.039.014-.05l1.154-1.253zm-2.624 1.459c.021.199.032.4.032.597s-.011.399-.032.597c-.047.44.096.877.393 1.199l1.154 1.253c.017.018.02.045.008.067l-.878 1.521c-.012.021-.037.032-.061.027l-1.662-.373a1.53 1.53 0 0 0-1.234.26 5.63 5.63 0 0 1-1.036.599c-.404.179-.71.521-.841.939l-.508 1.625c-.008.024-.029.04-.054.04h-1.756c-.025 0-.047-.016-.054-.04l-.508-1.625c-.13-.417-.437-.76-.841-.939-.364-.161-.713-.363-1.036-.598-.266-.194-.583-.296-.905-.296-.11 0-.221.012-.33.037l-1.661.373c-.024.006-.049-.005-.062-.027l-.878-1.521c-.013-.022-.01-.048.007-.067l1.154-1.253a1.53 1.53 0 0 0 .393-1.199c-.021-.199-.032-.4-.032-.597a5.63 5.63 0 0 1 .032-.597c.047-.44-.096-.877-.393-1.199l-1.154-1.253c-.017-.018-.02-.045-.007-.067l.878-1.521c.012-.022.037-.033.062-.027l1.662.373a1.53 1.53 0 0 0 1.234-.26c.322-.235.671-.437 1.036-.598.404-.179.711-.521.841-.939l.508-1.625c.007-.024.029-.04.054-.04h1.756c.025 0 .047.016.054.04l.508 1.625c.131.418.437.76.841.939.365.162.713.363 1.036.598a1.53 1.53 0 0 0 1.235.26l1.661-.373c.024-.005.049.005.062.027l.878 1.521c.013.022.01.048-.008.067l-1.154 1.253c-.297.322-.44.759-.393 1.199z" fill="url(#D)"/><path d="M18.806 5.525h-3.771c-.405 0-.732.328-.732.732s.328.732.732.732h3.771c.404 0 .732-.328.732-.732s-.328-.732-.732-.732z" fill="url(#E)"/><path d="M8.132 6.99h3.749c.405 0 .732-.328.732-.732s-.328-.732-.732-.732H8.132c-.405 0-.732.328-.732.732s.328.732.732.732z" fill="url(#F)"/><use xlink:href="#S" fill="url(#G)"/><path d="M19.052 9.416c0 .405.328.732.732.732h3.145c.404 0 .732-.328.732-.732s-.328-.732-.732-.732h-3.145c-.404 0-.732.328-.732.732z" fill="url(#H)"/><path d="M8.132 13.301h3.552c.404 0 .732-.328.732-.732s-.328-.732-.732-.732H8.132c-.405 0-.732.328-.732.732s.328.732.732.732z" fill="url(#I)"/><path d="M16.628 11.836H14.84c-.405 0-.732.328-.732.732s.328.732.732.732h1.788c.404 0 .732-.328.732-.732s-.328-.732-.732-.732z" fill="url(#J)"/><path d="M22.93 11.836h-3.157c-.404 0-.732.328-.732.732s.328.732.732.732h3.157c.405 0 .733-.328.733-.732s-.328-.732-.733-.732z" fill="url(#K)"/><use xlink:href="#S" y="6.312" fill="url(#L)"/><path d="M22.918 14.995h-3.134c-.404 0-.732.328-.732.732s.328.732.732.732h3.134c.405 0 .733-.328.733-.732s-.328-.732-.733-.732z" fill="url(#M)"/><path d="M8.132 19.616h1.48c.404 0 .732-.328.732-.733s-.328-.732-.732-.732h-1.48c-.405 0-.732.328-.732.732s.328.733.732.733z" fill="url(#N)"/><path d="M22.92 18.151H12.77c-.405 0-.732.328-.732.732s.328.733.732.733h10.15c.404 0 .732-.328.732-.733s-.328-.732-.732-.732z" fill="url(#O)"/><path d="M22.92 6.99c.404 0 .732-.328.732-.732s-.328-.732-.732-.732h-.976c-.405 0-.733.328-.733.732s.328.732.733.732h.976z" fill="url(#P)"/><path d="M5.301 3.236a.73.73 0 0 0-.983.328l-.592 1.184a.73.73 0 0 0 0 .655l.592 1.184a.73.73 0 0 0 .983.327c.362-.181.509-.621.328-.983l-.428-.856.428-.856c.181-.362.034-.802-.328-.983z" fill="url(#Q)"/><path d="M25.758 19.54a.73.73 0 0 0 .327.078c.269 0 .527-.148.656-.405l.592-1.184c.103-.206.103-.449 0-.655l-.592-1.184c-.181-.362-.621-.508-.983-.327a.73.73 0 0 0-.328.983l.428.856-.428.856c-.181.362-.034.802.328.983z" fill="url(#R)"/><defs><linearGradient id="A" x1="0" y1="14.49" x2="31.06" y2="14.49" xlink:href="#T"><stop stop-color="#00469f"/><stop offset="1" stop-color="#1e79d6"/></linearGradient><linearGradient id="B" x1="0" y1="31.114" x2="31.06" y2="31.114" xlink:href="#T"><stop stop-color="#00469f"/><stop offset="1" stop-color="#1e79d6"/></linearGradient><linearGradient id="C" x1="12.674" y1="31.389" x2="18.381" y2="31.389" xlink:href="#T"><stop stop-color="#00469f"/><stop offset="1" stop-color="#1e79d6"/></linearGradient><linearGradient id="D" x1="6.903" y1="31.565" x2="24.156" y2="31.565" xlink:href="#T"><stop stop-color="#00469f"/><stop offset="1" stop-color="#1e79d6"/></linearGradient><linearGradient id="E" x1="14.303" y1="6.277" x2="19.538" y2="6.277" xlink:href="#T"><stop stop-color="#00469f"/><stop offset="1" stop-color="#1e79d6"/></linearGradient><linearGradient id="F" x1="7.399" y1="6.277" x2="12.613" y2="6.277" xlink:href="#T"><stop stop-color="#00469f"/><stop offset="1" stop-color="#1e79d6"/></linearGradient><linearGradient id="G" x1="7.399" y1="9.436" x2="17.36" y2="9.436" xlink:href="#T"><stop stop-color="#00469f"/><stop offset="1" stop-color="#1e79d6"/></linearGradient><linearGradient id="H" x1="19.052" y1="9.436" x2="23.662" y2="9.436" xlink:href="#T"><stop stop-color="#00469f"/><stop offset="1" stop-color="#1e79d6"/></linearGradient><linearGradient id="I" x1="7.399" y1="12.589" x2="12.416" y2="12.589" xlink:href="#T"><stop stop-color="#00469f"/><stop offset="1" stop-color="#1e79d6"/></linearGradient><linearGradient id="J" x1="14.107" y1="12.589" x2="17.36" y2="12.589" xlink:href="#T"><stop stop-color="#00469f"/><stop offset="1" stop-color="#1e79d6"/></linearGradient><linearGradient id="K" x1="19.041" y1="12.589" x2="23.663" y2="12.589" xlink:href="#T"><stop stop-color="#00469f"/><stop offset="1" stop-color="#1e79d6"/></linearGradient><linearGradient id="L" x1="7.399" y1="9.435" x2="17.36" y2="9.435" xlink:href="#T"><stop stop-color="#00469f"/><stop offset="1" stop-color="#1e79d6"/></linearGradient><linearGradient id="M" x1="19.052" y1="15.747" x2="23.651" y2="15.747" xlink:href="#T"><stop stop-color="#00469f"/><stop offset="1" stop-color="#1e79d6"/></linearGradient><linearGradient id="N" x1="7.399" y1="18.903" x2="10.344" y2="18.903" xlink:href="#T"><stop stop-color="#00469f"/><stop offset="1" stop-color="#1e79d6"/></linearGradient><linearGradient id="O" x1="12.037" y1="18.903" x2="23.653" y2="18.903" xlink:href="#T"><stop stop-color="#00469f"/><stop offset="1" stop-color="#1e79d6"/></linearGradient><linearGradient id="P" x1="21.212" y1="6.277" x2="23.653" y2="6.277" xlink:href="#T"><stop stop-color="#00469f"/><stop offset="1" stop-color="#1e79d6"/></linearGradient><linearGradient id="Q" x1="3.649" y1="5.127" x2="5.706" y2="5.127" xlink:href="#T"><stop stop-color="#00469f"/><stop offset="1" stop-color="#1e79d6"/></linearGradient><linearGradient id="R" x1="25.353" y1="17.753" x2="27.41" y2="17.753" xlink:href="#T"><stop stop-color="#00469f"/><stop offset="1" stop-color="#1e79d6"/></linearGradient><path id="S" d="M8.132 10.148h8.496c.404 0 .732-.328.732-.732s-.328-.732-.732-.732H8.132c-.405 0-.732.328-.732.732s.328.732.732.732z"/><linearGradient id="T" gradientUnits="userSpaceOnUse"/></defs></svg>
